X: 6
M: C|
L: 1/8
K: D
V: 1
|:\
|:\
a4 gfe^d | eBcB AGFE | g4 fedc | dABA GFED |\
|: [K:Dm]\
"Mineur"\
f4 gfed | {d2}^c6 d2 | e2 (ef/g/) fed^c | d2A2 d2e2 |\
f4 edc=B | e4 dc=BA | =B2 (Bc/d/) c=BA^G | A4 A4 :|
|:\
a4 bag^f | {f2}g6 z2 | g4 agfe | {e2}f6 a2 |\
a4 gfed | b4 agfe | f2 (ef/g/) fed^c | d4 d4 :|
V: 2 clef=bass middle=d
|:\
d4 f2d2 | a2e2 c2A2 | d2f2 g2a2 | d4 D4 | d4 f2d2 |
a2c'2 ^g2e2 | a2c2 d2e2 | a4 A4 :||: z2=c2 B2A2 | G4 z4 | z2B2 A2G2 |
d2d'2 b2g2 | a2a2 g2f2 | g2e2 a2A2 | d4 z4 | d2d'2 z4 |
c2c'2 z4 | d'2=b2 e'2e2 | a4 A4 :||: z2d2 d'2a2 | b2g2 B2G2 |
z2c2 c'2g2 | a2f2 A2F2 | d2d'2 z4 | ^c2^c'2 z4 | d'2g2 a2A2 | d4 D4 :|


